static/img/in-field/checkbox-spec-focus.svg

<svg width="290" height="56" viewBox="0 0 290 56" fill="none" xmlns="http://www.w3.org/2000/svg">
<path d="M14.8652 32.7036H13.0781V24.1372H17.9883V25.6255H14.8652V27.8345H17.7715V29.3169H14.8652V32.7036ZM20.8753 29.4165C20.8753 30.0649 20.9807 30.5552 21.1917 30.8872C21.4065 31.2192 21.7542 31.3853 22.2346 31.3853C22.7112 31.3853 23.053 31.2212 23.26 30.8931C23.471 30.561 23.5764 30.0688 23.5764 29.4165C23.5764 28.7681 23.471 28.2817 23.26 27.9575C23.0491 27.6333 22.7034 27.4712 22.2229 27.4712C21.7464 27.4712 21.4026 27.6333 21.1917 27.9575C20.9807 28.2778 20.8753 28.7642 20.8753 29.4165ZM25.4046 29.4165C25.4046 30.4829 25.1233 31.3169 24.5608 31.9185C23.9983 32.52 23.2151 32.8208 22.2112 32.8208C21.5823 32.8208 21.0276 32.6841 20.5471 32.4106C20.0667 32.1333 19.6975 31.7368 19.4397 31.2212C19.1819 30.7056 19.053 30.104 19.053 29.4165C19.053 28.3462 19.3323 27.5142 19.8909 26.9204C20.4495 26.3267 21.2346 26.0298 22.2464 26.0298C22.8753 26.0298 23.43 26.1665 23.9104 26.4399C24.3909 26.7134 24.76 27.106 25.0178 27.6177C25.2757 28.1294 25.4046 28.729 25.4046 29.4165ZM29.4693 32.8208C27.4302 32.8208 26.4107 31.7017 26.4107 29.4634C26.4107 28.3501 26.688 27.5005 27.2427 26.9146C27.7974 26.3247 28.5923 26.0298 29.6275 26.0298C30.3853 26.0298 31.065 26.1782 31.6665 26.4751L31.1392 27.8579C30.858 27.7446 30.5962 27.6528 30.354 27.5825C30.1119 27.5083 29.8697 27.4712 29.6275 27.4712C28.6978 27.4712 28.233 28.1313 28.233 29.4517C28.233 30.7329 28.6978 31.3735 29.6275 31.3735C29.9712 31.3735 30.2896 31.3286 30.5826 31.2388C30.8755 31.145 31.1685 31.0005 31.4615 30.8052V32.3345C31.1724 32.5181 30.8794 32.645 30.5826 32.7153C30.2896 32.7856 29.9185 32.8208 29.4693 32.8208ZM37.5535 32.7036L37.3133 31.8657H37.2195C37.0281 32.1704 36.7567 32.4067 36.4051 32.5747C36.0535 32.7388 35.6531 32.8208 35.2039 32.8208C34.4344 32.8208 33.8543 32.6157 33.4637 32.2056C33.0731 31.7915 32.8778 31.1978 32.8778 30.4243V26.1528H34.6649V29.979C34.6649 30.4517 34.7488 30.8071 34.9168 31.0454C35.0848 31.2798 35.3524 31.397 35.7195 31.397C36.2195 31.397 36.5809 31.231 36.8035 30.8989C37.0262 30.563 37.1375 30.0083 37.1375 29.2349V26.1528H38.9246V32.7036H37.5535ZM45.2979 30.7583C45.2979 31.4302 45.0636 31.9419 44.5948 32.2935C44.13 32.645 43.4327 32.8208 42.503 32.8208C42.0265 32.8208 41.6202 32.7876 41.2843 32.7212C40.9483 32.6587 40.6339 32.5649 40.3409 32.4399V30.9634C40.6729 31.1196 41.046 31.2505 41.46 31.356C41.878 31.4614 42.2452 31.5142 42.5616 31.5142C43.21 31.5142 43.5343 31.3267 43.5343 30.9517C43.5343 30.811 43.4913 30.6978 43.4054 30.6118C43.3194 30.522 43.171 30.4224 42.96 30.313C42.7491 30.1997 42.4679 30.0688 42.1163 29.9204C41.6124 29.7095 41.2413 29.5142 41.003 29.3345C40.7686 29.1548 40.5968 28.9497 40.4874 28.7192C40.3819 28.4849 40.3292 28.1978 40.3292 27.8579C40.3292 27.2759 40.5538 26.8267 41.003 26.5103C41.4561 26.1899 42.0968 26.0298 42.9249 26.0298C43.714 26.0298 44.4815 26.2017 45.2276 26.5454L44.6886 27.8345C44.3604 27.6938 44.0538 27.5786 43.7686 27.4888C43.4835 27.3989 43.1925 27.354 42.8956 27.354C42.3682 27.354 42.1046 27.4966 42.1046 27.7817C42.1046 27.9419 42.1886 28.0806 42.3565 28.1978C42.5284 28.3149 42.9015 28.4888 43.4757 28.7192C43.9874 28.9263 44.3624 29.1196 44.6007 29.2993C44.839 29.479 45.0147 29.686 45.128 29.9204C45.2413 30.1548 45.2979 30.4341 45.2979 30.7583ZM54.236 30.7583C54.236 31.4302 54.0016 31.9419 53.5328 32.2935C53.068 32.645 52.3707 32.8208 51.441 32.8208C50.9645 32.8208 50.5582 32.7876 50.2223 32.7212C49.8864 32.6587 49.5719 32.5649 49.2789 32.4399V30.9634C49.611 31.1196 49.984 31.2505 50.3981 31.356C50.816 31.4614 51.1832 31.5142 51.4996 31.5142C52.1481 31.5142 52.4723 31.3267 52.4723 30.9517C52.4723 30.811 52.4293 30.6978 52.3434 30.6118C52.2575 30.522 52.109 30.4224 51.8981 30.313C51.6871 30.1997 51.4059 30.0688 51.0543 29.9204C50.5504 29.7095 50.1793 29.5142 49.941 29.3345C49.7067 29.1548 49.5348 28.9497 49.4254 28.7192C49.32 28.4849 49.2672 28.1978 49.2672 27.8579C49.2672 27.2759 49.4918 26.8267 49.941 26.5103C50.3942 26.1899 51.0348 26.0298 51.8629 26.0298C52.652 26.0298 53.4196 26.2017 54.1657 26.5454L53.6266 27.8345C53.2985 27.6938 52.9918 27.5786 52.7067 27.4888C52.4215 27.3989 52.1305 27.354 51.8336 27.354C51.3063 27.354 51.0426 27.4966 51.0426 27.7817C51.0426 27.9419 51.1266 28.0806 51.2946 28.1978C51.4664 28.3149 51.8395 28.4888 52.4137 28.7192C52.9254 28.9263 53.3004 29.1196 53.5387 29.2993C53.777 29.479 53.9528 29.686 54.066 29.9204C54.1793 30.1548 54.236 30.4341 54.236 30.7583ZM58.3183 31.397C58.6308 31.397 59.0058 31.3286 59.4433 31.1919V32.522C58.998 32.7212 58.4511 32.8208 57.8026 32.8208C57.0878 32.8208 56.5663 32.6411 56.2382 32.2817C55.914 31.9185 55.7519 31.3755 55.7519 30.6528V27.4946H54.8964V26.7388L55.8808 26.1411L56.3964 24.7583H57.539V26.1528H59.373V27.4946H57.539V30.6528C57.539 30.9067 57.6093 31.0942 57.7499 31.2153C57.8944 31.3364 58.0839 31.397 58.3183 31.397ZM62.1252 29.4165C62.1252 30.0649 62.2306 30.5552 62.4416 30.8872C62.6564 31.2192 63.0041 31.3853 63.4845 31.3853C63.9611 31.3853 64.3029 31.2212 64.5099 30.8931C64.7209 30.561 64.8263 30.0688 64.8263 29.4165C64.8263 28.7681 64.7209 28.2817 64.5099 27.9575C64.299 27.6333 63.9533 27.4712 63.4728 27.4712C62.9963 27.4712 62.6525 27.6333 62.4416 27.9575C62.2306 28.2778 62.1252 28.7642 62.1252 29.4165ZM66.6545 29.4165C66.6545 30.4829 66.3732 31.3169 65.8107 31.9185C65.2482 32.52 64.465 32.8208 63.4611 32.8208C62.8322 32.8208 62.2775 32.6841 61.797 32.4106C61.3166 32.1333 60.9474 31.7368 60.6896 31.2212C60.4318 30.7056 60.3029 30.104 60.3029 29.4165C60.3029 28.3462 60.5822 27.5142 61.1408 26.9204C61.6994 26.3267 62.4845 26.0298 63.4963 26.0298C64.1252 26.0298 64.6799 26.1665 65.1603 26.4399C65.6408 26.7134 66.0099 27.106 66.2677 27.6177C66.5256 28.1294 66.6545 28.729 66.6545 29.4165ZM69.7758 29.1411L70.5551 28.145L72.3891 26.1528H74.4047L71.8032 28.9946L74.5629 32.7036H72.5004L70.6137 30.0493L69.8461 30.6646V32.7036H68.059V23.5864H69.8461V27.6528L69.7524 29.1411H69.7758ZM78.1413 27.3013C77.7624 27.3013 77.4655 27.4224 77.2507 27.6646C77.0359 27.9028 76.9128 28.2427 76.8816 28.6841H79.3894C79.3816 28.2427 79.2663 27.9028 79.0437 27.6646C78.821 27.4224 78.5202 27.3013 78.1413 27.3013ZM78.3933 32.8208C77.3386 32.8208 76.5144 32.5298 75.9206 31.9478C75.3269 31.3657 75.03 30.5415 75.03 29.4751C75.03 28.3774 75.3034 27.5298 75.8503 26.9321C76.4011 26.3306 77.1609 26.0298 78.1296 26.0298C79.0554 26.0298 79.7761 26.2935 80.2917 26.8208C80.8073 27.3481 81.0652 28.0767 81.0652 29.0063V29.8735H76.8405C76.8601 30.3813 77.0105 30.7778 77.2917 31.063C77.573 31.3481 77.9675 31.4907 78.4753 31.4907C78.8698 31.4907 79.2429 31.4497 79.5945 31.3677C79.946 31.2856 80.3132 31.1548 80.696 30.9751V32.3579C80.3835 32.5142 80.0495 32.6294 79.6941 32.7036C79.3386 32.7817 78.905 32.8208 78.3933 32.8208ZM94.2203 30.7349H92.9488V32.7036H92.0171V30.7349H87.8511V29.8853L91.9175 24.0903H92.9488V29.8501H94.2203V30.7349ZM92.0171 29.8501V27.0024C92.0171 26.4438 92.0367 25.813 92.0757 25.1099H92.0288C91.8413 25.4849 91.6656 25.7954 91.5015 26.0415L88.8238 29.8501H92.0171ZM99.7967 31.8423H99.7439C99.2947 32.4946 98.6229 32.8208 97.7283 32.8208C96.8885 32.8208 96.2342 32.5337 95.7654 31.9595C95.3006 31.3853 95.0682 30.5688 95.0682 29.5103C95.0682 28.4517 95.3025 27.6294 95.7713 27.0435C96.24 26.4575 96.8924 26.1646 97.7283 26.1646C98.5994 26.1646 99.2674 26.481 99.7322 27.1138H99.8084L99.7674 26.6509L99.7439 26.1997V23.5864H100.717V32.7036H99.9256L99.7967 31.8423ZM97.8514 32.0063C98.5154 32.0063 98.9959 31.8267 99.2928 31.4673C99.5936 31.104 99.7439 30.52 99.7439 29.7153V29.5103C99.7439 28.6001 99.5916 27.9517 99.2869 27.5649C98.9861 27.1743 98.5037 26.979 97.8397 26.979C97.2693 26.979 96.8318 27.2017 96.5272 27.647C96.2264 28.0884 96.076 28.7134 96.076 29.522C96.076 30.3423 96.2264 30.9614 96.5272 31.3794C96.8279 31.7974 97.2693 32.0063 97.8514 32.0063ZM105.701 32.8208C105.283 32.8208 104.9 32.7446 104.553 32.5923C104.209 32.436 103.92 32.1978 103.686 31.8774H103.615C103.662 32.2524 103.686 32.6079 103.686 32.9438V35.5864H102.713V26.2817H103.504L103.639 27.1606H103.686C103.936 26.8091 104.227 26.5552 104.559 26.3989C104.891 26.2427 105.272 26.1646 105.701 26.1646C106.553 26.1646 107.209 26.4556 107.67 27.0376C108.135 27.6196 108.367 28.436 108.367 29.4868C108.367 30.5415 108.131 31.3618 107.658 31.9478C107.19 32.5298 106.537 32.8208 105.701 32.8208ZM105.561 26.9907C104.904 26.9907 104.43 27.1724 104.137 27.5356C103.844 27.8989 103.693 28.4771 103.686 29.27V29.4868C103.686 30.3892 103.836 31.0356 104.137 31.4263C104.438 31.813 104.92 32.0063 105.584 32.0063C106.139 32.0063 106.572 31.7817 106.885 31.3325C107.201 30.8833 107.359 30.2642 107.359 29.4751C107.359 28.6743 107.201 28.061 106.885 27.6353C106.572 27.2056 106.131 26.9907 105.561 26.9907Z" fill="black"/>
<path d="M1 51V5H138.827V13.932L146 20.6311L138.827 26.8835V51H1Z" stroke="#CCCCCC"/>
<g clip-path="url(#clip0_7256_85261)">
<path fill-rule="evenodd" clip-rule="evenodd" d="M170 10C165.582 10 162 13.5817 162 18V38C162 42.4183 165.582 46 170 46H190C194.418 46 198 42.4183 198 38V18C198 13.5817 194.418 10 190 10H170ZM189.333 13H170.667C167.52 13 165 15.5529 165 18.6667V37.3333C165 40.4471 167.52 43 170.667 43H189.333C192.48 43 195 40.4471 195 37.3333V18.6667C195 15.5529 192.48 13 189.333 13ZM170.667 16H189.333C190.813 16 192 17.2 192 18.6667V37.3333C192 38.8 190.813 40 189.333 40H170.667C169.187 40 168 38.8 168 37.3333V18.6667C168 17.2 169.187 16 170.667 16Z" fill="#019AEB"/>
<path fill-rule="evenodd" clip-rule="evenodd" d="M170.667 16H189.333C190.813 16 192 17.2 192 18.6667V37.3333C192 38.8 190.813 40 189.333 40H170.667C169.187 40 168 38.8 168 37.3333V18.6667C168 17.2 169.187 16 170.667 16ZM170.667 28L177.333 34.6667L189.333 22.6667L187.453 20.7733L177.333 30.8933L172.547 26.12L170.667 28Z" fill="#0063A3"/>
<path fill-rule="evenodd" clip-rule="evenodd" d="M170.667 28L177.333 34.6667L189.333 22.6667L187.453 20.7733L177.333 30.8933L172.547 26.12L170.667 28Z" fill="white"/>
</g>
<path d="M214 9H223V47H214" stroke="#4091D2"/>
<path d="M239.135 23.0857C239.135 23.6208 238.973 24.0759 238.648 24.4509C238.324 24.8259 237.869 25.0837 237.283 25.2244V25.2595C237.975 25.3455 238.498 25.5564 238.854 25.8923C239.209 26.2244 239.387 26.6736 239.387 27.24C239.387 28.0642 239.088 28.7068 238.49 29.1677C237.893 29.6248 237.039 29.8533 235.93 29.8533C235 29.8533 234.176 29.699 233.457 29.3904V27.8494C233.789 28.0173 234.154 28.1541 234.553 28.2595C234.951 28.365 235.346 28.4177 235.736 28.4177C236.334 28.4177 236.775 28.3162 237.061 28.113C237.346 27.9099 237.488 27.5837 237.488 27.1345C237.488 26.7322 237.324 26.447 236.996 26.2791C236.668 26.1111 236.145 26.0271 235.426 26.0271H234.775V24.6384H235.438C236.102 24.6384 236.586 24.5525 236.891 24.3806C237.199 24.2048 237.354 23.906 237.354 23.4841C237.354 22.8357 236.947 22.5115 236.135 22.5115C235.854 22.5115 235.566 22.5583 235.273 22.6521C234.984 22.7458 234.662 22.908 234.307 23.1384L233.469 21.8904C234.25 21.3279 235.182 21.0466 236.264 21.0466C237.15 21.0466 237.85 21.2263 238.361 21.5857C238.877 21.9451 239.135 22.4451 239.135 23.0857ZM246.205 25.4529C246.205 26.949 245.959 28.0564 245.467 28.7751C244.979 29.4939 244.225 29.8533 243.205 29.8533C242.217 29.8533 241.471 29.4822 240.967 28.74C240.467 27.9978 240.217 26.9021 240.217 25.4529C240.217 23.9412 240.461 22.8279 240.949 22.113C241.438 21.3943 242.19 21.0349 243.205 21.0349C244.194 21.0349 244.94 21.4099 245.444 22.1599C245.951 22.9099 246.205 24.0076 246.205 25.4529ZM242.016 25.4529C242.016 26.5037 242.106 27.2576 242.285 27.7146C242.469 28.1677 242.776 28.3943 243.205 28.3943C243.627 28.3943 243.932 28.1638 244.119 27.7029C244.307 27.2419 244.401 26.4919 244.401 25.4529C244.401 24.4021 244.305 23.6482 244.114 23.1912C243.926 22.7302 243.623 22.4998 243.205 22.4998C242.78 22.4998 242.475 22.7302 242.291 23.1912C242.108 23.6482 242.016 24.4021 242.016 25.4529ZM249.579 29.8533C248.809 29.8533 248.204 29.5544 247.762 28.9568C247.325 28.3591 247.106 27.531 247.106 26.4724C247.106 25.3982 247.329 24.5623 247.774 23.9646C248.223 23.363 248.84 23.0623 249.626 23.0623C250.45 23.0623 251.079 23.3826 251.512 24.0232H251.571C251.481 23.5349 251.436 23.0994 251.436 22.7166V20.6189H253.229V29.7361H251.858L251.512 28.8865H251.436C251.03 29.531 250.411 29.8533 249.579 29.8533ZM250.206 28.4294C250.663 28.4294 250.997 28.2966 251.208 28.031C251.422 27.7654 251.54 27.3142 251.559 26.6775V26.4841C251.559 25.781 251.45 25.2771 251.231 24.9724C251.016 24.6677 250.665 24.5154 250.176 24.5154C249.778 24.5154 249.467 24.6853 249.245 25.0251C249.026 25.3611 248.917 25.8513 248.917 26.4958C248.917 27.1404 249.028 27.6248 249.251 27.949C249.473 28.2693 249.792 28.4294 250.206 28.4294ZM258.624 29.8533C257.854 29.8533 257.251 29.574 256.813 29.0154H256.72C256.782 29.5623 256.813 29.8787 256.813 29.9646V32.6189H255.026V23.1853H256.479L256.731 24.0349H256.813C257.231 23.3865 257.85 23.0623 258.671 23.0623C259.444 23.0623 260.05 23.3611 260.487 23.9587C260.925 24.5564 261.143 25.3865 261.143 26.449C261.143 27.1482 261.04 27.7556 260.833 28.2712C260.63 28.7869 260.339 29.1794 259.96 29.449C259.581 29.7185 259.136 29.8533 258.624 29.8533ZM258.097 24.4919C257.655 24.4919 257.333 24.6287 257.13 24.9021C256.927 25.1716 256.821 25.6189 256.813 26.2439V26.4373C256.813 27.1404 256.917 27.6443 257.124 27.949C257.335 28.2537 257.667 28.406 258.12 28.406C258.921 28.406 259.321 27.7458 259.321 26.4255C259.321 25.781 259.222 25.2986 259.022 24.9783C258.827 24.6541 258.518 24.4919 258.097 24.4919Z" fill="#4091D2"/>
<defs>
<clipPath id="clip0_7256_85261">
<rect width="36" height="36" fill="white" transform="translate(162 10)"/>
</clipPath>
</defs>
</svg>

<svg width="290" height="56" fill="none" xmlns="http://www.w3.org/2000/svg"><path d="M14.865 32.704h-1.787v-8.567h4.91v1.488h-3.123v2.21h2.906v1.482h-2.906v3.387zm6.01-3.288c0 .649.106 1.14.317 1.471.215.332.562.498 1.043.498.476 0 .818-.164 1.025-.492.211-.332.316-.824.316-1.477 0-.648-.105-1.134-.316-1.459-.21-.324-.557-.486-1.037-.486-.477 0-.82.162-1.031.486-.211.32-.317.807-.317 1.46zm4.53 0c0 1.067-.282 1.9-.844 2.503-.563.601-1.346.902-2.35.902-.629 0-1.183-.137-1.664-.41a2.767 2.767 0 01-1.107-1.19c-.258-.515-.387-1.117-.387-1.805 0-1.07.28-1.902.838-2.496.559-.593 1.344-.89 2.355-.89.63 0 1.184.136 1.664.41.48.273.85.666 1.108 1.178.258.511.387 1.111.387 1.799zm4.064 3.405c-2.039 0-3.058-1.12-3.058-3.358 0-1.113.277-1.963.832-2.548.554-.59 1.35-.885 2.385-.885.757 0 1.437.148 2.038.445l-.527 1.383a8.329 8.329 0 00-.785-.276 2.468 2.468 0 00-.726-.11c-.93 0-1.395.66-1.395 1.98 0 1.28.465 1.921 1.395 1.921.343 0 .662-.044.955-.134.293-.094.586-.239.879-.434v1.53c-.29.183-.583.31-.88.38-.292.07-.663.106-1.113.106zm8.084-.117l-.24-.838h-.094a1.904 1.904 0 01-.814.709 2.809 2.809 0 01-1.201.246c-.77 0-1.35-.205-1.74-.615-.39-.415-.586-1.008-.586-1.782v-4.271h1.787v3.826c0 .473.084.828.252 1.066.168.235.435.352.802.352.5 0 .862-.166 1.084-.498.223-.336.335-.89.335-1.664v-3.082h1.787v6.55h-1.371zm7.745-1.946c0 .672-.234 1.184-.703 1.536-.465.351-1.162.527-2.092.527a6.39 6.39 0 01-1.219-.1 4.488 4.488 0 01-.943-.281v-1.477c.332.157.705.287 1.119.393.418.105.785.158 1.102.158.648 0 .972-.187.972-.562a.46.46 0 00-.129-.34c-.086-.09-.234-.19-.445-.299a10.35 10.35 0 00-.844-.393c-.504-.21-.875-.406-1.113-.586a1.694 1.694 0 01-.516-.615c-.105-.234-.158-.521-.158-.861 0-.582.225-1.031.674-1.348.453-.32 1.094-.48 1.922-.48.789 0 1.556.172 2.303.515l-.54 1.29a9.887 9.887 0 00-.92-.346 2.886 2.886 0 00-.872-.135c-.528 0-.791.143-.791.428 0 .16.084.299.252.416.171.117.544.29 1.119.521.511.207.886.4 1.125.58.238.18.414.387.527.621.113.235.17.514.17.838zm8.938 0c0 .672-.234 1.184-.703 1.536-.465.351-1.162.527-2.092.527a6.39 6.39 0 01-1.219-.1 4.49 4.49 0 01-.943-.281v-1.477c.332.157.705.287 1.12.393a4.58 4.58 0 001.1.158c.65 0 .973-.187.973-.562a.46.46 0 00-.129-.34c-.086-.09-.234-.19-.445-.299a10.37 10.37 0 00-.844-.393c-.504-.21-.875-.406-1.113-.586a1.695 1.695 0 01-.516-.615c-.105-.234-.158-.521-.158-.861 0-.582.225-1.031.674-1.348.453-.32 1.094-.48 1.922-.48.789 0 1.557.172 2.303.515l-.54 1.29a9.885 9.885 0 00-.92-.346 2.887 2.887 0 00-.872-.135c-.528 0-.791.143-.791.428 0 .16.084.299.252.416.171.117.544.29 1.119.521.511.207.886.4 1.125.58.238.18.414.387.527.621.113.235.17.514.17.838zm4.082.639c.313 0 .688-.068 1.125-.205v1.33c-.445.2-.992.299-1.64.299-.715 0-1.237-.18-1.565-.54-.324-.362-.486-.905-.486-1.628v-3.158h-.856v-.756l.985-.598.515-1.383h1.143v1.395h1.834v1.342h-1.834v3.158c0 .254.07.441.21.562.145.121.335.182.57.182zm3.807-1.98c0 .648.106 1.138.317 1.47.214.332.562.498 1.042.498.477 0 .819-.164 1.026-.492.21-.332.316-.824.316-1.477 0-.648-.105-1.134-.316-1.459-.211-.324-.557-.486-1.037-.486-.477 0-.82.162-1.031.486-.211.32-.317.807-.317 1.46zm4.53 0c0 1.066-.282 1.9-.844 2.502-.563.601-1.346.902-2.35.902-.629 0-1.183-.137-1.664-.41a2.767 2.767 0 01-1.107-1.19c-.258-.515-.387-1.117-.387-1.805 0-1.07.28-1.902.838-2.496.558-.593 1.343-.89 2.355-.89.63 0 1.184.136 1.664.41.48.273.85.666 1.108 1.178.258.511.386 1.111.386 1.799zm3.12-.276l.78-.996 1.834-1.992h2.016l-2.602 2.842 2.76 3.709H72.5l-1.886-2.655-.768.616v2.039H68.06v-9.118h1.787v4.067l-.094 1.488h.024zm8.366-1.84c-.379 0-.675.121-.89.364-.215.238-.338.578-.37 1.02h2.508c-.007-.442-.123-.782-.345-1.02-.223-.243-.524-.364-.903-.364zm.252 5.52c-1.054 0-1.879-.291-2.472-.873-.594-.582-.891-1.407-.891-2.473 0-1.098.273-1.945.82-2.543.551-.601 1.31-.902 2.28-.902.925 0 1.646.264 2.162.79.515.528.773 1.257.773 2.186v.867h-4.224c.02.508.17.905.45 1.19.282.285.677.428 1.184.428.395 0 .768-.041 1.12-.123a5.604 5.604 0 001.101-.393v1.383a4.104 4.104 0 01-1.002.346c-.355.078-.789.117-1.3.117zm15.827-2.086H92.95v1.969h-.932v-1.97h-4.166v-.849l4.067-5.795h1.03v5.76h1.272v.885zm-2.203-.885v-2.848c0-.558.02-1.189.059-1.892h-.047a8.798 8.798 0 01-.528.931l-2.677 3.81h3.193zm7.78 1.992h-.053c-.45.653-1.121.979-2.016.979-.84 0-1.494-.287-1.963-.861-.464-.575-.697-1.391-.697-2.45 0-1.058.234-1.88.703-2.466.469-.587 1.121-.88 1.957-.88.871 0 1.54.317 2.004.95h.076l-.04-.463-.024-.451v-2.614h.973v9.118h-.791l-.13-.862zm-1.946.164c.664 0 1.145-.18 1.442-.539.3-.363.45-.947.45-1.752v-.205c0-.91-.151-1.558-.456-1.945-.3-.39-.783-.586-1.447-.586-.57 0-1.008.223-1.313.668-.3.441-.451 1.066-.451 1.875 0 .82.15 1.44.451 1.857.3.418.742.627 1.324.627zm7.85.815c-.418 0-.801-.076-1.148-.229a2.178 2.178 0 01-.867-.715h-.071c.047.375.071.73.071 1.067v2.642h-.973v-9.304h.791l.135.879h.047c.25-.352.541-.606.873-.762a2.654 2.654 0 011.142-.234c.852 0 1.508.29 1.969.873.465.582.697 1.398.697 2.449 0 1.055-.236 1.875-.709 2.46-.468.583-1.121.874-1.957.874zm-.14-5.83c-.657 0-1.131.181-1.424.545-.293.363-.444.941-.451 1.734v.217c0 .902.15 1.549.451 1.94.301.386.783.58 1.447.58.555 0 .988-.225 1.301-.674.316-.45.474-1.069.474-1.858 0-.8-.158-1.414-.474-1.84-.313-.43-.754-.644-1.324-.644z" fill="#000"/><path d="M1 51V5h137.827v8.932l7.173 6.7-7.173 6.252V51H1z" stroke="#CCC"/><g clip-path="url(#prefix__clip0_7256_85261)" fill-rule="evenodd" clip-rule="evenodd"><path d="M170 10a8 8 0 00-8 8v20a8 8 0 008 8h20a8 8 0 008-8V18a8 8 0 00-8-8h-20zm19.333 3h-18.666A5.666 5.666 0 00165 18.667v18.666A5.666 5.666 0 00170.667 43h18.666A5.666 5.666 0 00195 37.333V18.667A5.666 5.666 0 00189.333 13zm-18.666 3h18.666c1.48 0 2.667 1.2 2.667 2.667v18.666A2.666 2.666 0 01189.333 40h-18.666c-1.48 0-2.667-1.2-2.667-2.667V18.667A2.666 2.666 0 01170.667 16z" fill="#019AEB"/><path d="M170.667 16h18.666c1.48 0 2.667 1.2 2.667 2.667v18.666A2.666 2.666 0 01189.333 40h-18.666c-1.48 0-2.667-1.2-2.667-2.667V18.667A2.666 2.666 0 01170.667 16zm0 12l6.666 6.667 12-12-1.88-1.894-10.12 10.12-4.786-4.773-1.88 1.88z" fill="#0063A3"/><path d="M170.667 28l6.666 6.667 12-12-1.88-1.894-10.12 10.12-4.786-4.773-1.88 1.88z" fill="#fff"/></g><path d="M214 9h9v38h-9" stroke="#4091D2"/><path d="M239.135 23.086c0 .535-.162.99-.487 1.365-.324.375-.779.633-1.365.773v.035c.692.087 1.215.297 1.571.633.355.332.533.782.533 1.348 0 .824-.299 1.467-.897 1.928-.597.457-1.451.685-2.56.685-.93 0-1.754-.154-2.473-.463v-1.54c.332.167.697.304 1.096.41.398.105.793.158 1.183.158.598 0 1.039-.102 1.325-.305.285-.203.427-.53.427-.979 0-.402-.164-.687-.492-.855-.328-.168-.851-.252-1.57-.252h-.651v-1.389h.663c.664 0 1.148-.086 1.453-.257.308-.176.463-.475.463-.897 0-.648-.407-.973-1.219-.973a2.82 2.82 0 00-.862.141 4.207 4.207 0 00-.966.486l-.838-1.248c.781-.562 1.713-.843 2.795-.843.886 0 1.586.18 2.097.539.516.36.774.86.774 1.5zm7.07 2.367c0 1.496-.246 2.603-.738 3.322-.488.719-1.242 1.078-2.262 1.078-.988 0-1.734-.37-2.238-1.113-.5-.742-.75-1.838-.75-3.287 0-1.512.244-2.625.732-3.34.489-.719 1.241-1.078 2.256-1.078.989 0 1.735.375 2.239 1.125.507.75.761 1.848.761 3.293zm-4.189 0c0 1.05.09 1.805.269 2.262.184.453.491.68.92.68.422 0 .727-.231.914-.692.188-.461.282-1.211.282-2.25 0-1.05-.096-1.805-.287-2.262-.188-.46-.491-.691-.909-.691-.425 0-.73.23-.914.691-.183.457-.275 1.211-.275 2.262zm7.563 4.4c-.77 0-1.375-.299-1.817-.896-.437-.598-.656-1.426-.656-2.485 0-1.074.223-1.91.668-2.507.449-.602 1.066-.903 1.852-.903.824 0 1.453.32 1.886.961h.059a7.294 7.294 0 01-.135-1.306v-2.098h1.793v9.117h-1.371l-.346-.85h-.076c-.406.645-1.025.967-1.857.967zm.627-1.424c.457 0 .791-.132 1.002-.398.214-.266.332-.717.351-1.354v-.193c0-.703-.109-1.207-.328-1.512-.215-.304-.566-.457-1.055-.457-.398 0-.709.17-.931.51-.219.336-.328.826-.328 1.47 0 .645.111 1.13.334 1.454.222.32.541.48.955.48zm8.418 1.424c-.77 0-1.373-.279-1.811-.838h-.093c.062.547.093.864.093.95v2.654h-1.787v-9.434h1.453l.252.85h.082c.418-.648 1.037-.973 1.858-.973.773 0 1.379.3 1.816.897.438.597.656 1.428.656 2.49 0 .7-.103 1.307-.31 1.822-.203.516-.494.908-.873 1.178-.379.27-.824.404-1.336.404zm-.527-5.361c-.442 0-.764.137-.967.41-.203.27-.309.717-.317 1.342v.193c0 .703.104 1.207.311 1.512.211.305.543.457.996.457.801 0 1.201-.66 1.201-1.98 0-.645-.099-1.127-.299-1.448-.195-.324-.504-.486-.925-.486z" fill="#4091D2"/><defs><clipPath id="prefix__clip0_7256_85261"><path fill="#fff" transform="translate(162 10)" d="M0 0h36v36H0z"/></clipPath></defs></svg>
